usr/share/icons/biglinux-icons-material/scalable/mimetypes/application-vnd.ms-excel.template.macroenabled.12.svg

<svg width="24" height="24" viewBox="0 0 24 24" fill="none" xmlns="http://www.w3.org/2000/svg">
<rect x="1" y="1" width="22" height="22" rx="6.6" fill="url(#paint0_radial_1_130)"/>
<path d="M12.5878 5C10.0593 5.45029 7.52931 6.04771 5.00073 6.48975C5.00073 10.3361 4.99909 14.1842 5.00073 18.0324C7.51617 18.4728 10.0328 19.0603 12.5431 19.5188H13.2966V5.00002L12.5878 5ZM10.9001 9.52564C10.4597 10.4278 10.0177 11.3301 9.56908 12.2288C10.0226 13.1524 10.4862 14.0693 10.9414 14.993C10.5439 14.9699 10.1481 14.9451 9.75062 14.917C9.47024 14.2293 9.12872 13.5648 8.92751 12.8457C8.7032 13.5153 8.3832 14.1469 8.12592 14.8033C7.76472 14.7984 7.40347 14.7835 7.04227 14.7686C7.46614 13.939 7.8752 13.1027 8.31226 12.2781C7.94117 11.4287 7.53377 10.596 7.15114 9.75147C7.51398 9.73003 7.877 9.70873 8.23984 9.68894C8.48559 10.3338 8.75426 10.9703 8.95712 11.6316C9.17482 10.9307 9.49974 10.2711 9.77847 9.59322C10.1512 9.56684 10.5257 9.54377 10.9001 9.52564Z" fill="white"/>
<path d="M13.8147 7.07409V8.11115H15.3703V9.14822H13.8147V9.66675H15.3703V10.7056H13.8147V11.2223H15.3703V12.2594H13.8147V12.7779H15.3703V13.815H13.8147V14.3335H15.3703V15.3706H13.8147V15.8891H15.3703V16.9262H13.8147V17.9632H19V7.07423L13.8147 7.07409ZM15.8888 8.11115H17.9629V9.14822H15.8888V8.11115ZM15.8888 9.66675H17.9629V10.7056H15.8888V9.66675ZM15.8888 11.2223H17.9629V12.2594H15.8888V11.2223ZM15.8888 12.7779H17.9629V13.815H15.8888V12.7779ZM15.8888 14.3335H17.9629V15.3706H15.8888V14.3335ZM15.8888 15.8891H17.9629V16.9261H15.8888V15.8891Z" fill="white"/>
<defs>
<radialGradient id="paint0_radial_1_130" cx="0" cy="0" r="1" gradientUnits="userSpaceOnUse" gradientTransform="translate(17.5 1) rotate(116.565) scale(24.5967)">
<stop stop-color="#739A87"/>
<stop offset="1" stop-color="#285D43"/>
</radialGradient>
</defs>
</svg>

<svg xmlns="http://www.w3.org/2000/svg" width="24" height="24" fill="none"><rect width="22" height="22" x="1" y="1" fill="url(#a)" rx="6.6"/><path fill="#fff" d="M12.588 5C10.059 5.45 7.529 6.048 5 6.49c0 3.846-.002 7.694 0 11.542 2.515.44 5.032 1.028 7.542 1.487h.754V5h-.71ZM10.9 9.526c-.44.902-.882 1.804-1.33 2.703.453.923.916 1.84 1.371 2.764a95.085 95.085 0 0 1-1.19-.076c-.28-.688-.622-1.352-.823-2.071-.225.67-.545 1.3-.802 1.957-.361-.005-.723-.02-1.084-.034.424-.83.833-1.666 1.27-2.49-.37-.85-.778-1.683-1.16-2.528L8.24 9.69c.246.645.514 1.281.717 1.943.218-.701.543-1.36.821-2.039.373-.026.748-.05 1.122-.067ZM13.815 7.074v1.037h1.555v1.037h-1.555v.519h1.555v1.039h-1.555v.516h1.555v1.037h-1.555v.519h1.555v1.037h-1.555v.519h1.555v1.037h-1.555v.518h1.555v1.037h-1.555v1.037H19V7.074h-5.185Zm2.074 1.037h2.074v1.037h-2.074V8.111Zm0 1.556h2.074v1.039h-2.074v-1.04Zm0 1.555h2.074v1.037h-2.074v-1.037Zm0 1.556h2.074v1.037h-2.074v-1.037Zm0 1.556h2.074v1.037h-2.074v-1.037Zm0 1.555h2.074v1.037h-2.074V15.89Z"/><defs><radialGradient id="a" cx="0" cy="0" r="1" gradientTransform="rotate(116.565 8.441 5.908) scale(24.5967)" gradientUnits="userSpaceOnUse"><stop stop-color="#739A87"/><stop offset="1" stop-color="#285D43"/></radialGradient></defs></svg>
